X: 10232
T: Do It In Jig Time
R: jig
M: 6/8
K: Adorian
AAA BBB|AAA AGE|AAA B2 A|GBA GED|
AAA BBB|AAA AGE|GAB G2 E|GAB GED:|
dBd G3|GBd efg|dBd G3|GBA GED|
dBd G3|GBd efg|ded B2 G|AGE GED:|

